X: 36612
T: Shan Van Vocht, The
R: reel
M: 4/4
K: Gmajor
d2c2|BGAB GE (3DEG|A2A2A2 dc|BGAB GFED|
E2G2G2:|:AB|c2cd e2fg|dBAG A2 GA|
BdAB GFED|E2A2A2 dc|BGAB GEDE|GGG:|

